svg/baby_carriage.svg

<svg xmlns="http://www.w3.org/2000/svg" viewBox="0 0 24 24"><path d="M13 2v8h8a8 8 0 0 0-8-8m6.32 13.89A7.95 7.95 0 0 0 21 11H6.44L5.5 9H2v2h2.22s1.89 4.07 2.12 4.42C5.24 16 4.5 17.17 4.5 18.5A3.5 3.5 0 0 0 8 22c1.76 0 3.22-1.3 3.46-3h2.08c.24 1.7 1.7 3 3.46 3a3.5 3.5 0 0 0 3.5-3.5c0-1.04-.46-1.97-1.18-2.61M8 20a1.5 1.5 0 0 1-1.5-1.5A1.5 1.5 0 0 1 8 17a1.5 1.5 0 0 1 1.5 1.5A1.5 1.5 0 0 1 8 20m9 0a1.5 1.5 0 0 1-1.5-1.5A1.5 1.5 0 0 1 17 17a1.5 1.5 0 0 1 1.5 1.5A1.5 1.5 0 0 1 17 20"/></svg>

<?xml version="1.0" encoding="UTF-8"?><!DOCTYPE svg PUBLIC "-//W3C//DTD SVG 1.1//EN" "http://www.w3.org/Graphics/SVG/1.1/DTD/svg11.dtd"><svg xmlns="http://www.w3.org/2000/svg" xmlns:xlink="http://www.w3.org/1999/xlink" version="1.1" id="mdi-baby-carriage" width="24" height="24" viewBox="0 0 24 24"><path d="M13,2V10H21A8,8 0 0,0 13,2M19.32,15.89C20.37,14.54 21,12.84 21,11H6.44L5.5,9H2V11H4.22C4.22,11 6.11,15.07 6.34,15.42C5.24,16 4.5,17.17 4.5,18.5A3.5,3.5 0 0,0 8,22C9.76,22 11.22,20.7 11.46,19H13.54C13.78,20.7 15.24,22 17,22A3.5,3.5 0 0,0 20.5,18.5C20.5,17.46 20.04,16.53 19.32,15.89M8,20A1.5,1.5 0 0,1 6.5,18.5A1.5,1.5 0 0,1 8,17A1.5,1.5 0 0,1 9.5,18.5A1.5,1.5 0 0,1 8,20M17,20A1.5,1.5 0 0,1 15.5,18.5A1.5,1.5 0 0,1 17,17A1.5,1.5 0 0,1 18.5,18.5A1.5,1.5 0 0,1 17,20Z" /></svg>
